tools/download-figma-icons/icons/outlined-large/pkw.svg

<svg width="64" height="64" viewBox="0 0 64 64" fill="none" xmlns="http://www.w3.org/2000/svg">
<path d="M59.5761 29.3928L48.1742 27.1119L43.0703 22.7729C39.6994 19.908 36.3554 18 30.9995 18L25.5666 18.007C25.5446 18.006 25.5226 18 25.4996 18C25.0146 18 24.5526 18.023 24.1016 18.057C16.0677 18.556 9.23186 23.1589 7.87088 24.1329L3.27095 25.4379C1.34398 25.9839 0 27.7648 0 29.7668V36.0767C0 38.1827 1.49398 40.0337 3.55294 40.4756L7.25189 41.2716C8.02587 43.9956 10.5308 45.9986 13.4998 45.9986C16.1977 45.9986 18.5167 44.3446 19.4987 41.9986H44.5013C45.4833 44.3446 47.8013 45.9986 50.5002 45.9986C53.3442 45.9986 55.7601 44.1606 56.6401 41.6116H60.5001C62.43 41.6116 64 40.0417 64 38.1117V34.7847C64 32.1718 62.141 29.9038 59.5781 29.3918L59.5761 29.3928ZM41.1264 25.0599L43.2703 26.8819L30.3855 26.5029L29.6975 21.002L30.9995 21C35.4554 21 38.1794 22.5529 41.1274 25.0599H41.1264ZM24.1816 21.06C24.6186 21.03 25.0566 21.007 25.4986 21.007H26.6746L27.3506 26.4139L15.7378 26.0729C16.8177 24.1919 19.2247 21.4769 24.1806 21.061L24.1816 21.06ZM13.4988 42.9996C11.5688 42.9996 9.99884 41.4296 9.99884 39.4997C9.99884 37.5697 11.5688 35.9997 13.4988 35.9997C15.4288 35.9997 16.9987 37.5697 16.9987 39.4997C16.9987 41.4296 15.4288 42.9996 13.4988 42.9996ZM50.4982 42.9996C48.5682 42.9996 46.9983 41.4296 46.9983 39.4997C46.9983 37.5697 48.5682 35.9997 50.4982 35.9997C52.4282 35.9997 53.9982 37.5697 53.9982 39.4997C53.9982 41.4296 52.4282 42.9996 50.4982 42.9996ZM60.998 38.1127C60.998 38.3877 60.7731 38.6127 60.4981 38.6127H56.9301C56.4951 35.4477 53.7802 32.9998 50.4982 32.9998C47.0833 32.9998 44.2803 35.6487 44.0233 38.9997H19.9727C19.7157 35.6487 16.9137 32.9998 13.4978 32.9998C10.3668 32.9998 7.74588 35.2257 7.13389 38.1777L4.18193 37.5427C3.49595 37.3957 2.99795 36.7787 2.99795 36.0767V29.7668C2.99795 29.0998 3.44595 28.5058 4.08794 28.3238L8.94486 26.9459C9.12386 26.8959 9.29085 26.8129 9.43785 26.7009C9.47085 26.6759 10.9378 25.5859 13.2798 24.3659C12.3778 25.8699 12.0598 27.0749 12.0428 27.1439C11.9328 27.5838 12.0278 28.0508 12.3028 28.4128C12.5758 28.7748 12.9998 28.9928 13.4538 29.0068L47.3293 30.0028L58.9871 32.3348C60.1511 32.5678 60.997 33.5988 60.997 34.7867V38.1137L60.998 38.1127Z" fill="black"/>
</svg>

<svg xmlns="http://www.w3.org/2000/svg" width="64" height="64" fill="none" viewBox="0 0 64 64"><path fill="currentColor" d="m59.576 29.393-11.402-2.281-5.104-4.34C39.7 19.909 36.355 18 31 18l-5.433.007c-.022-.001-.044-.007-.067-.007-.485 0-.947.023-1.398.057-8.034.499-14.87 5.102-16.231 6.076l-4.6 1.305A4.516 4.516 0 0 0 0 29.767v6.31a4.52 4.52 0 0 0 3.553 4.399l3.699.796c.774 2.724 3.279 4.727 6.248 4.727a6.51 6.51 0 0 0 5.999-4H44.5a6.51 6.51 0 0 0 6 4c2.843 0 5.26-1.838 6.14-4.387h3.86a3.504 3.504 0 0 0 3.499-3.5v-3.327a5.51 5.51 0 0 0-4.422-5.393zm-18.45-4.333 2.144 1.822-12.885-.38-.687-5.5L31 21c4.455 0 7.18 1.553 10.127 4.06m-16.944-4c.437-.03.875-.053 1.317-.053h1.176l.676 5.407-11.613-.341c1.08-1.881 3.487-4.596 8.443-5.012zM13.499 43c-1.93 0-3.5-1.57-3.5-3.5s1.57-3.5 3.5-3.5 3.5 1.57 3.5 3.5-1.57 3.5-3.5 3.5m37 0c-1.93 0-3.5-1.57-3.5-3.5s1.57-3.5 3.5-3.5 3.5 1.57 3.5 3.5-1.57 3.5-3.5 3.5m10.499-4.887c0 .275-.225.5-.5.5H56.93C56.495 35.448 53.78 33 50.498 33c-3.415 0-6.218 2.649-6.475 6h-24.05c-.257-3.351-3.06-6-6.475-6-3.131 0-5.752 2.226-6.364 5.178l-2.952-.635a1.51 1.51 0 0 1-1.184-1.466v-6.31c0-.667.448-1.261 1.09-1.443l4.857-1.378q.27-.076.493-.245c.033-.025 1.5-1.115 3.842-2.335-.902 1.504-1.22 2.709-1.237 2.778a1.5 1.5 0 0 0 1.411 1.863l33.875.996 11.658 2.332a2.51 2.51 0 0 1 2.01 2.452z"/></svg>
